!!!!SEGMENT: pl-wtm--r-1154_dobrzynski-ignacy-feliks--ojcze-nasz.krn
!!!cenid: 18xx:1757
!!!COM: Dobrzyński, Ignacy Feliks
!!!COM-rismid: pe30020642
!!!CDT: 1807/02/15-1867/10/09
!!!CNT: Polish
!!!OTL: Ojcze Nasz
!!!PDT: 1843
!!!AGN: Secular
!!!SMS-siglum: PL-Wtm
!!!SMS-shelfmark: R 1154
!!!SMS-shelfwork: W
!!!SMS-variant:
!!!SMS-altvar:
!!!NIFC-rismid: 1001056966
!!!URL-scan: http://repozytorium.nifc.pl/skany/pl-wtm-nut--r1154
!!!ONB-nifc:
**kern	**kern	**dynam	**kern	**text	**dynam	**kern	**text	**dynam	**kern	**text	**dynam	**kern	**text	**dynam
*part5	*part5	*part5	*part4	*part4	*part4	*part3	*part3	*part3	*part2	*part2	*part2	*part1	*part1	*part1
*group	*group	*	*group1	*	*	*group1	*	*	*group1	*	*	*group1	*	*
*staff6	*staff5	*	*staff4	*staff4	*	*staff3	*staff3	*	*staff2	*staff2	*	*staff1	*staff1	*
*Iorgan	*Iempty	*	*Iempty	*	*	*Itenor	*	*	*Ialto	*	*	*Isoprn	*	*
*I"Organo	*	*	*I"[Basso]	*	*	*I"[Tenore]	*	*	*I"[Alto]	*	*	*I"[Soprano]	*	*
*I'org	*	*	*I'[B]	*	*	*I'[T]	*	*	*I'[A]	*	*	*I'[S]	*	*
*clefF4	*clefG2	*	*clefF4	*	*	*clefGv2	*	*	*clefG2	*	*	*clefG2	*	*
*k[b-]	*k[b-]	*	*k[b-]	*	*	*k[b-]	*	*	*k[b-]	*	*	*k[b-]	*	*
*F:	*F:	*	*F:	*	*	*F:	*	*	*F:	*	*	*F:	*	*
*M4/4	*M4/4	*	*M4/4	*	*	*M4/4	*	*	*M4/4	*	*	*M4/4	*	*
*met(c)	*met(c)	*	*met(c)	*	*	*met(c)	*	*	*met(c)	*	*	*met(c)	*	*
*>[A,A,A,A,B]	*	*	*>[A,A,A,A,B]	*	*	*>[A,A,A,A,B]	*	*	*>[A,A,A,A,B]	*	*	*>[A,A,A,A,B]	*	*
=1	=1	=1	=1	=1	=1	=1	=1	=1	=1	=1	=1	=1	=1	=1
*>A	*	*	*>A	*	*	*>A	*	*	*>A	*	*	*>A	*	*
*	*^	*	*	*	*	*	*	*	*	*	*	*	*	*
!	!	!	!	!	!	!	!	!	!	!	!	!	!LO:TX:a:i:t=Andante religioso.	!	!
!	!	!	!	!	!	!	!	!	!	!	!	!	!	!	!LO:DY:rj
!	!	!	!LO:DY:rj	!	!	!LO:DY:b:rj	!	!	!LO:DY:b:rj	!	!	!LO:DY:b:rj	!	!	!LO:DY:b
2A 2F\	(>2f/	1c	p	2F\	4. Kie-	p	2A/	3. O-	p	2c/	2. Nie-	p	2f/	1. O!	p
4B- 4G\	4e/	.	.	4G\	-dy	.	4B-/	-we	.	4c/	-chaj	.	4e/	Ty	.
4A 4F\	4f/	.	.	4F\	nas	.	4A/	Kró-	.	4c/	przy	.	4f/	coś	.
=2	=2	=2	=2	=2	=2	=2	=2	=2	=2	=2	=2	=2	=2	=2	=2
*^	*	*	*	*	*	*	*	*	*	*	*	*	*	*	*
2F/	1D	2a/	1d	.	2D\	ma-	.	2F/	-le-	.	2d/	wiel-	.	2a/	sło-	.
2A/	.	2f/)	.	.	2D\	-mi	.	2A/	-stwo	.	2d/	-kiem	.	2f/	-wem	.
=3	=3	=3	=3	=3	=3	=3	=3	=3	=3	=3	=3	=3	=3	=3	=3	=3
!	!	!	!	!	!	!	!	!	!	!LO:DY:rj	!	!	!	!	!	!LO:DY:b
2d/	2B-\	(>2dd/	2.f\	mf	4B-\	zmy-	.	4d\	pra-	mf	4f/	oł-	.	4dd\	świat	mf
.	.	.	.	.	4B-\	-słów	.	4d\	-wdy	.	4f/	-ta-	.	4dd\	u-	.
[>2c/	4A\	4cc/	.	.	4A\	ob-	.	4c\	świa-	.	4f/	-rzu	.	4cc\	-two-	.
.	4G\	4b-/	4e\	.	4G\	-łą-	.	4c\	-tła	.	4e/	na-	.	4b-\	-rzył	.
=4	=4	=4	=4	=4	=4	=4	=4	=4	=4	=4	=4	=4	=4	=4	=4	=4
2c/]	2.F\	2a/	2f\	.	2F\	-ka-	.	2c\	cno-	.	2f/	-tu-	.	2a/	Bo-	.
4A/	.	4f/)	4c\	.	4F\	-nie	.	4A/	-ty	.	4c/	-ry	.	4f/	-że!	.
4rA	4rBB	4ra	4rc	.	4r	.	.	4r	.	.	4r	.	.	4r	.	.
*v	*v	*	*	*	*	*	*	*	*	*	*	*	*	*	*	*
=5	=5	=5	=5	=5	=5	=5	=5	=5	=5	=5	=5	=5	=5	=5	=5
!	!	!	!	!	!	!	!	!	!	!	!	!	!	!	!LO:DY:a:rj
[>1c 1C	(>2.g/	1e	p	2C/	Ty	.	2c\	Gdzie	.	2e/	Zie-	.	2g/	Coś	p
!	!	!	!	!	!	!	!	!	!	!	!	!	!	!	!LO:DY:a
.	.	.	.	4C/	kie-	.	4c\	pry-	.	4e/	-mia	.	4g/	niem	<
.	4g#X/	.	.	4C/	-ruj	.	4c\	-sną	.	4e/	i	.	4g#X/	wlał	.
=6	=6	=6	=6	=6	=6	=6	=6	=6	=6	=6	=6	=6	=6	=6	=6
1c] 1F	1a	[<1f	.	2F\	ser-	.	2c\	wię-	.	2f/	nie-	.	2a/	ży-	.
.	.	.	.	2F\	-cem	.	2c\	-zy	.	2f/	-bo	.	2a/	-cie	[[
=7	=7	=7	=7	=7	=7	=7	=7	=7	=7	=7	=7	=7	=7	=7	=7
!	!	!	!	!	!	!	!	!	!	!	!	!	!	!	!LO:DY:a:rj
(>4D\	2dd 2a/	2f\]	.	4D\	rządź	.	4f\	błę-	.	4a/	swo-	.	4dd\	w Nie-	f
8E\L	.	.	.	(>8E\L	ro-	.	4f\	-du	.	4a/	-je	.	4dd\	-bo	.
8F\J)	.	.	.	8F\J)	.	.	.	.	.	.	.	.	.	.	.
2G\	4cc 4g/	4e\	.	4G\	-zu-	.	4e\	i	.	4g/	łą-	.	4cc\	zie-	.
.	4bn 4f/)	4d\	.	4G\	-mem	.	4d\	cie-	.	4f/	-czy	.	4bn\	-mię	.
*	*v	*v	*	*	*	*	*	*	*	*	*	*	*	*	*
!!LO:LB:g=original
=8	=8	=8	=8	=8	=8	=8	=8	=8	=8	=8	=8	=8	=8	=8
*^	*	*	*	*	*	*	*	*	*	*	*	*	*	*
2Bn/	2GG\	2dd 2f/	.	2GG/	Pa-	.	2Bn\	mno-	.	2f/	chó-	.	2dd\	mo-	.
4c/	4C\	4cc 4e/	.	(>4C\	-nie	.	4c\	-ty	.	4e/	-ry	.	4cc\	-rze	.
8B/L	8D\L	4r	.	8D\L	.	.	4r	.	.	4r	.	.	4r	.	.
8B-X/J	8E\J	.	.	8E\J)	.	.	.	.	.	.	.	.	.	.	.
=9	=9	=9	=9	=9	=9	=9	=9	=9	=9	=9	=9	=9	=9	=9	=9
*	*	*^	*	*	*	*	*	*	*	*	*	*	*	*	*
!	!	!	!	!	!	!	!	!	!	!LO:DY:b:rj	!	!	!	!	!	!LO:DY:b:rj
2A/	2F\	2f/	1c	p	2F\	Je-	.	2A/	w o-	p	2c/	Gdzie	.	2f/	O-	p
4B-/	4G\	4e/	.	.	4G\	-że-	.	4B-X/	-gniu	.	4c/	a-	.	4e/	-to	.
4A/	4F\	4f/	.	.	4F\	-li	.	4A/	mi-	.	4c/	-nioł	.	4f/	Twe	.
=10	=10	=10	=10	=10	=10	=10	=10	=10	=10	=10	=10	=10	=10	=10	=10	=10
[>1c	1E-X	[>1a	1f	.	2E-X\	cie-	.	2c\	-ło-	.	2f/	czło-	.	2a/	dzie-	.
.	.	.	.	.	2E-\	-bie	.	2c\	-ści	.	2f/	-wiek	.	2a/	-ci	.
=11	=11	=11	=11	=11	=11	=11	=11	=11	=11	=11	=11	=11	=11	=11	=11	=11
!	!	!	!	!	!	!	!	!	!	!	!	!	!	!	!	!LO:DY:a
2.c/]	1D	2a/]	1f#X	.	4D\	ma-	.	4c\	spło-	.	4f#X/	ro-	.	4a/	mod-	<
.	.	.	.	.	4D\	-my	.	4c\	-ną	.	4f#/	-bak	.	4a/	-lą	.
.	.	4dd/	.	.	4D\	bydź	.	4c\	nie-	.	4f#/	słoń-	.	4dd\	się	.
[>4d/	.	[>4cc/	.	.	4D\	go-	.	4d\	-po-	.	4f#/	-ce	.	4cc\	do	[
=12	=12	=12	=12	=12	=12	=12	=12	=12	=12	=12	=12	=12	=12	=12	=12	=12
!	!	!	!	!	!	!	!	!	!	!	!	!	!	!	!	!LO:DY:a
2.d/]	4D\	2cc/]	2a\	.	4D\	-dne-	.	2d\	-ko-	.	2a/	zdro-	.	2cc\	cie-	>
.	8En\L	.	.	.	8En\L	.	.	.	.	.	.	.	.	.	.	.
.	8F#X\J	.	.	.	8F#X\J	.	.	.	.	.	.	.	.	.	.	.
.	4G\	4b-/	4g\	.	4G\	-mi	.	4d\	-je	.	4g/	-je	.	4b-\	-bie	]
4rB	4BB-/	4rcc	4re	.	4BB-/	.	.	4r	.	.	4r	.	.	4r	.	.
=13	=13	=13	=13	=13	=13	=13	=13	=13	=13	=13	=13	=13	=13	=13	=13	=13
!	!	!	!	!	!	!	!	!	!	!LO:DY:b	!	!	!	!	!	!LO:DY:a:rj
1B-	2.C\	2ee/	1g	f	2C/	Bądź	.	2B-\	Te	f	2g/	Ra-	.	2ee\	Oj-	f
.	.	4dd/	.	.	4C/	wo-	.	4B-\	to	.	4g/	-zem	.	4dd\	-cze	.
.	4C#X\	4ee/	.	.	4C#X/	-la	.	4B-\	pro-	.	4g/	śpie-	.	4ee\	nasz	.
=14	=14	=14	=14	=14	=14	=14	=14	=14	=14	=14	=14	=14	=14	=14	=14	=14
!	!	!	!	!	!	!	!	!	!	!	!	!	!	!	!	!LO:DY:a
2A/	2D\	2.ff/	1f	.	2D\	Two-	.	2A/	-sie-	.	2f/	-wa-	.	2.ff\	wie-	>
2G#X/	2BBn\	.	.	.	2BBn/	-ja	.	2G#X/	-my	.	2f/	-ją	.	.	.	.
.	.	4dd/	.	.	.	.	.	.	.	.	.	.	.	4dd\	-czny	]
!!LO:PB:g=original
=15	=15	=15	=15	=15	=15	=15	=15	=15	=15	=15	=15	=15	=15	=15	=15	=15
!	!	!	!	!	!	!	!	!	!	!	!	!	!	!	!	!LO:DY:b:rj
2A/	[<1C	4cc/	2.f\	p	4C/	w Nie-	.	4A/	Przyjdź	.	4f/	święć	.	4cc\	Któ-	p
.	.	4f/	.	.	4C/	-bie	.	4A/	Kró-	.	4f/	się	.	4f/	-ry	.
4c/	.	4a/	.	.	4C/	i	.	4c\	-le-	.	4f/	I-	.	4a/	je-	.
[>4B-/	.	4g/	4e\	.	4C/	na	.	4B-\	-stwo	.	4e/	-mie	.	4g/	-steś	.
=16	=16	=16	=16	=16	=16	=16	=16	=16	=16	=16	=16	=16	=16	=16	=16	=16
2B-/]	2C\]	2g/	2e\	.	2C/	zie-	.	2B-\	Two-	.	2e/	Two-	.	2g/	w nie-	.
4A/	4F\	4f/	4f\	.	4F\	-mi	.	4A\	-je	.	4f/	-je	.	4f/	-bie	.
*v	*v	*	*	*	*	*	*	*	*	*	*	*	*	*	*	*
*	*v	*v	*	*	*	*	*	*	*	*	*	*	*	*	*
*	*	*	*	*	*	*	*	*	*	*	*	*	*	*
*^	*^	*	*	*	*	*	*	*	*	*	*	*	*	*
4rA	4rBB	4r	4r	.	4r	.	.	4r	.	.	4r	.	.	4r	.	.
*v	*v	*	*	*	*	*	*	*	*	*	*	*	*	*	*	*
!	!	!	!	!	!	!	!	!	!	!	!	!	!LO:TX:a:t=*	!	!
=17	=17	=17	=17	=17	=17	=17	=17	=17	=17	=17	=17	=17	=17	=17	=17
!	!LO:TX:a:i:t=NB. Po ostatniej strofie nie powtarza się przegrywki\nale wprost Zakończenie.	!	!	!	!	!	!	!	!	!	!	!	!	!	!
2F\	2a 2c/	1f	p	1rD	.	.	1rB	.	.	1rb	.	.	1rb	.	.
4BB-/	4b- 4d/	.	.	.	.	.	.	.	.	.	.	.	.	.	.
4F\	4a 4c/	.	.	.	.	.	.	.	.	.	.	.	.	.	.
=18	=18	=18	=18	=18	=18	=18	=18	=18	=18	=18	=18	=18	=18	=18	=18
*	*	*^	*	*	*	*	*	*	*	*	*	*	*	*	*
2E\	4.a/	2c#X\	(<2A\	.	1rD	.	.	1rB	.	.	1rb	.	.	1rb	.	.
.	8g/	.	.	.	.	.	.	.	.	.	.	.	.	.	.	.
4D\	4f/	4d\	2A\)	.	.	.	.	.	.	.	.	.	.	.	.	.
4C\	4f#X/	4e-X\	.	.	.	.	.	.	.	.	.	.	.	.	.	.
*	*	*v	*v	*	*	*	*	*	*	*	*	*	*	*	*	*
=19	=19	=19	=19	=19	=19	=19	=19	=19	=19	=19	=19	=19	=19	=19	=19
!	!	!	!	!LO:N:vis=2	!	!	!LO:N:vis=2	!	!	!	!	!	!	!	!
4BB-/	4g 4d/	4B-\	.	1rD	.	.	1rB	.	.	1rb	.	.	1rb	.	.
8AA/L	8aL 8f#X/	8c\L	.	.	.	.	.	.	.	.	.	.	.	.	.
8GG/J	8b-J 8g/	8d\J	.	.	.	.	.	.	.	.	.	.	.	.	.
2C/	4a 4fn/	4c\	.	.	.	.	.	.	.	.	.	.	.	.	.
.	4g 4e/	4B-\	.	.	.	.	.	.	.	.	.	.	.	.	.
=20	=20	=20	=20	=20	=20	=20	=20	=20	=20	=20	=20	=20	=20	=20	=20
*^	*	*	*	*	*	*	*	*	*	*	*	*	*	*	*
!	!	!	!	!	!	!LO:N:vis=2	!	!	!LO:N:vis=2	!	!	!	!	!	!	!
2.ryy	4F\	2g 2e [>2c 2B-</	2.ryy	.	1rD	.	.	1rB	.	.	1rb	.	.	1rb	.	.
.	4C\	.	.	.	.	.	.	.	.	.	.	.	.	.	.	.
.	4FF/	4f 4c] 4A</	.	.	.	.	.	.	.	.	.	.	.	.	.	.
4rB	4rC	4rb	4rc	.	.	.	.	.	.	.	.	.	.	.	.	.
*v	*v	*	*	*	*	*	*	*	*	*	*	*	*	*	*	*
*	*v	*v	*	*	*	*	*	*	*	*	*	*	*	*	*
!!LO:LB:g=original
=21:||	=21:||	=21:||	=21:||	=21:||	=21:||	=21:||	=21:||	=21:||	=21:||	=21:||	=21:||	=21:||	=21:||	=21:||
*>B	*	*	*>B	*	*	*>B	*	*	*>B	*	*	*>B	*	*
!	!	!	!	!	!	!	!	!	!	!	!	!LO:TX:a:i:t=Zakończenie	!	!
*	*	*	*	*	*	*	*	*	*	*	*	*	*	*
*	*	*	*	*	*	*	*	*	*	*	*	*	*	*^
*	*	*	*	*	*	*	*	*	*	*	*	*	*	*	*
!	!	!	!	!	!	!	!	!	!	!	!	!LO:TX:a:t=*	!	!LO:HP:b	!LO:DY:b:rj
*	*	*	*	*	*	*	*	*	*	*	*^	*	*	*	*
!	!	!	!	!	!	!	!	!	!	!	!LO:HP:b	!LO:DY:b:rj	!	!	!	!
*	*	*	*	*	*^	*	*	*	*	*	*	*	*	*	*	*
!	!	!	!	!	!LO:HP:b	!LO:DY:b:rj	!	!	!	!	!	!	!	!	!	!	!
1ryy	1ryy	.	1AA	.	<	p	[>1A 1E	.	.	1c#X	.	<	p	1a	a-	<	p
!	!	!	!	!	!LO:HP:b	!	!	!	!	!	!	!LO:HP:b	!	!	!	!LO:HP:b	!
.	.	.	.	.	[>	.	.	.	.	.	.	[>	.	.	.	[>	.
.	.	.	.	.	]	.	.	.	.	.	.	]	.	.	.	]	.
*	*	*	*	*	*v	*v	*	*	*	*	*	*	*	*	*	*	*
*	*	*	*	*	*	*	*	*	*	*	*v	*v	*	*	*	*
*	*	*	*	*	*	*	*	*	*	*	*	*	*	*v	*v
=22	=22	=22	=22	=22	=22	=22	=22	=22	=22	=22	=22	=22	=22	=22
*	*	*	*	*	*	*^	*	*	*	*	*	*	*	*
!	!	!	!	!	!LO:DY:b:rj	!	!	!	!	!	!	!LO:DY:b:rj	!	!	!LO:DY:b:rj
1ryy	1ryy	.	2D\	.	p	2A/]	2D\	.	.	2d/	.	p	2f/	-men	p
!	!	!	!	!	!	!	!	!	!	!LO:N:vis=1	!	!	!LO:N:vis=1	!	!
.	.	.	2r	.	.	2rG	2ryy	.	.	2rg	.	.	2rg	.	.
*	*	*	*	*	*	*v	*v	*	*	*	*	*	*	*	*
=23	=23	=23	=23	=23	=23	=23	=23	=23	=23	=23	=23	=23	=23	=23
*	*	*	*	*	*	*	*	*	*	*	*	*	*	*^
!	!	!	!	!	!	!	!	!	!	!	!LO:HP:b	!	!	!LO:HP:b	!LO:DY:b:rj
!	!	!	!	!	!LO:HP:b	!	!	!	!	!	!	!	!	!	!
1ryy	1ryy	.	1C	.	<	1B- 1E	.	.	1cn	.	<	1g	a-	<	p
!	!	!	!	!	!LO:HP:b	!	!	!	!	!	!LO:HP:b	!	!	!LO:HP:b	!
.	.	.	.	.	[>	.	.	.	.	.	[>	.	.	[>	.
.	.	.	.	.	]	.	.	.	.	.	]	.	.	]	.
*	*	*	*	*	*	*	*	*	*	*	*	*	*	*v	*v
=24	=24	=24	=24	=24	=24	=24	=24	=24	=24	=24	=24	=24	=24	=24
!	!	!	!	!	!LO:DY:b:rj	!	!	!	!	!	!LO:DY:b:rj	!	!	!LO:DY:b:rj
1ryy	1ryy	.	1F 1FF;>	.	p	1A 1F;>	.	.	1c;>	.	p	1f;>	-men	] p
!	!	!	!	!	!	!LO:TX:a:i:t=Fine	!	!	!	!	!	!	!	!
==	==	==	==	==	==	==	==	==	==	==	==	==	==	==
*-	*-	*-	*-	*-	*-	*-	*-	*-	*-	*-	*-	*-	*-	*-
!!!system-decoration: [(g1)]{(s5,s6)}
!!!RDF**kern: > = above
!!!RDF**kern: < = below
!!!EED: Antoni Szymański
!!!EST: 2021-04-12
!!!ENC: Andrzej Gręziak
!!!END: 2021-04-06
